icons/Bee.svg

<svg width="24" height="24" viewBox="0 0 24 24" fill="none" xmlns="http://www.w3.org/2000/svg">
<path fill-rule="evenodd" clip-rule="evenodd" d="M6.75,3.00003c0,-0.41421 0.33579,-0.75 0.75,-0.75c0.95165,0 1.87504,0.3924 2.5608,1.00194c0.4806,0.42722 0.8708,0.98612 1.0618,1.62839c0.2776,-0.08474 0.5722,-0.13033 0.8774,-0.13033c0.3052,0 0.5998,0.04559 0.8774,0.13033c0.191,-0.64227 0.5812,-1.20117 1.0618,-1.62839c0.6858,-0.60954 1.6091,-1.00194 2.5608,-1.00194c0.4142,0 0.75,0.33579 0.75,0.75c0,0.41421 -0.3358,0.75 -0.75,0.75c-0.5483,0 -1.125,0.2326 -1.5642,0.62306c-0.438,0.38934 -0.6858,0.88462 -0.6858,1.37694c0,0.00517 -0.0001,0.01032 -0.0002,0.01546c0.4669,0.52887 0.7502,1.22362 0.7502,1.98454c0,0.06672 -0.0022,0.13292 -0.0065,0.19856c0.2536,-0.17081 0.5113,-0.332 0.7691,-0.4771c0.698,-0.39301 1.4878,-0.72146 2.2374,-0.72146c2.6234,0 4.75,2.12665 4.75,4.74997c0,2.6234 -2.1266,4.75 -4.75,4.75c-0.4329,0 -0.8793,-0.1095 -1.3137,-0.2778c-0.2333,1.7552 -1.0741,3.1047 -1.9516,4.0408c-0.5155,0.5499 -1.0506,0.9653 -1.5001,1.2473c-0.2244,0.1408 -0.4355,0.2534 -0.6198,0.3336c-0.1476,0.0643 -0.3828,0.1561 -0.6148,0.1561c-0.232,0 -0.4672,-0.0918 -0.6148,-0.1561c-0.1843,-0.0802 -0.3954,-0.1928 -0.6198,-0.3336c-0.4495,-0.282 -0.98456,-0.6974 -1.50005,-1.2473c-0.87759,-0.9361 -1.71831,-2.2856 -1.95168,-4.0408c-0.43436,0.1683 -0.88073,0.2778 -1.31367,0.2778c-2.62335,0 -4.75,-2.1266 -4.75,-4.75c0,-2.62332 2.12665,-4.74997 4.75,-4.74997c0.74956,0 1.53938,0.32845 2.23743,0.72146c0.25772,0.1451 0.51543,0.30629 0.76904,0.47709c-0.00429,-0.06563 -0.00647,-0.13183 -0.00647,-0.19855c0,-0.76092 0.28329,-1.45567 0.75016,-1.98454c-0.00011,-0.00514 -0.00016,-0.01029 -0.00016,-0.01546c0,-0.49232 -0.24776,-0.9876 -0.68577,-1.37694c-0.43927,-0.39046 -1.01588,-0.62306 -1.56423,-0.62306c-0.41421,0 -0.75,-0.33579 -0.75,-0.75zM12,6.25003c-0.8284,0 -1.5,0.67157 -1.5,1.5c0,0.82843 0.6716,1.5 1.5,1.5c0.8284,0 1.5,-0.67157 1.5,-1.5c0,-0.82843 -0.6716,-1.5 -1.5,-1.5zM6,8.25003c-1.79493,0 -3.25,1.45507 -3.25,3.24997c0,1.795 1.45507,3.25 3.25,3.25c0.35501,0 0.86747,-0.1715 1.50153,-0.5285c0.61395,-0.3457 1.25774,-0.8164 1.85235,-1.3022c0.59177,-0.4836 1.11912,-0.9691 1.49942,-1.3348l0.0874,-0.0845l-0.0874,-0.0844c-0.3803,-0.3657 -0.90765,-0.8513 -1.49942,-1.3348c-0.59461,-0.48584 -1.2384,-0.95657 -1.85235,-1.30223c-0.63406,-0.35699 -1.14652,-0.52854 -1.50153,-0.52854zM8.75392,15.2174c0.01255,0.3468 0.05488,0.6759 0.12138,0.9875l0.02146,0.009c0.21355,0.0888 0.5148,0.2076 0.86332,0.326c0.71552,0.2433 1.55812,0.4601 2.23992,0.4601c0.6818,0 1.5244,-0.2168 2.2399,-0.4601c0.3485,-0.1184 0.6498,-0.2372 0.8633,-0.326l0.0215,-0.009c0.0665,-0.3116 0.1088,-0.6407 0.1214,-0.9875c-0.1582,-0.1012 -0.3152,-0.2069 -0.4703,-0.3156c-0.153,0.0579 -0.3331,0.1223 -0.5322,0.1868c-0.6051,0.1959 -1.4432,0.4114 -2.2436,0.4114c-0.8004,0 -1.6385,-0.2155 -2.24357,-0.4114c-0.19914,-0.0645 -0.37926,-0.1289 -0.53223,-0.1868c-0.15506,0.1087 -0.31215,0.2144 -0.47028,0.3156zM10.6515,13.7902c0.4458,0.1203 0.924,0.2098 1.3485,0.2098c0.4245,0 0.9027,-0.0895 1.3485,-0.2098c-0.4882,-0.4149 -0.9172,-0.8126 -1.2416,-1.1246c-0.037,-0.0356 -0.0726,-0.0701 -0.1069,-0.1034c-0.0343,0.0333 -0.0699,0.0678 -0.1069,0.1034c-0.3244,0.312 -0.7534,0.7097 -1.2416,1.1246zM16.4985,8.77857c-0.614,0.34566 -1.2578,0.81639 -1.8524,1.30223c-0.5918,0.4835 -1.1191,0.9691 -1.4994,1.3348l-0.0874,0.0844l0.0874,0.0845c0.3803,0.3657 0.9076,0.8512 1.4994,1.3348c0.5946,0.4858 1.2384,0.9565 1.8524,1.3022c0.634,0.357 1.1465,0.5285 1.5015,0.5285c1.7949,0 3.25,-1.455 3.25,-3.25c0,-1.7949 -1.4551,-3.24997 -3.25,-3.24997c-0.355,0 -0.8675,0.17155 -1.5015,0.52854zM11.984,20.2186l0.016,0.0069l0.016,-0.0069c0.1028,-0.0447 0.2473,-0.1197 0.4213,-0.2289c0.3473,-0.2179 0.781,-0.5525 1.203,-1.0026c0.248,-0.2646 0.4896,-0.5661 0.707,-0.9051c-0.7021,0.2169 -1.5593,0.418 -2.3473,0.418c-0.788,0 -1.6452,-0.2011 -2.34735,-0.418c0.21742,0.339 0.45905,0.6405 0.70705,0.9051c0.422,0.4501 0.8557,0.7847 1.203,1.0026c0.174,0.1092 0.3185,0.1842 0.4213,0.2289z" fill="#002B51"/>
</svg>

<svg width="24" height="24" viewBox="0 0 24 24" fill="none" xmlns="http://www.w3.org/2000/svg">
<path fill-rule="evenodd" clip-rule="evenodd" d="M6.75 3.00003C6.75 2.58582 7.08579 2.25003 7.5 2.25003C8.45165 2.25003 9.37504 2.64243 10.0608 3.25197C10.5414 3.67919 10.9316 4.23809 11.1226 4.88036C11.4002 4.79562 11.6948 4.75003 12 4.75003C12.3052 4.75003 12.5998 4.79562 12.8774 4.88036C13.0684 4.23809 13.4586 3.67919 13.9392 3.25197C14.625 2.64243 15.5483 2.25003 16.5 2.25003C16.9142 2.25003 17.25 2.58582 17.25 3.00003C17.25 3.41424 16.9142 3.75003 16.5 3.75003C15.9517 3.75003 15.375 3.98263 14.9358 4.37309C14.4978 4.76243 14.25 5.25771 14.25 5.75003C14.25 5.7552 14.2499 5.76035 14.2498 5.76549C14.7167 6.29436 15 6.98911 15 7.75003C15 7.81675 14.9978 7.88295 14.9935 7.94859C15.2471 7.77778 15.5048 7.61659 15.7626 7.47149C16.4606 7.07848 17.2504 6.75003 18 6.75003C20.6234 6.75003 22.75 8.87668 22.75 11.5C22.75 14.1234 20.6234 16.25 18 16.25C17.5671 16.25 17.1207 16.1405 16.6863 15.9722C16.453 17.7274 15.6122 19.0769 14.7347 20.013C14.2192 20.5629 13.6841 20.9783 13.2346 21.2603C13.0102 21.4011 12.7991 21.5137 12.6148 21.5939C12.4672 21.6582 12.232 21.75 12 21.75C11.768 21.75 11.5328 21.6582 11.3852 21.5939C11.2009 21.5137 10.9898 21.4011 10.7654 21.2603C10.3159 20.9783 9.78084 20.5629 9.26535 20.013C8.38776 19.0769 7.54704 17.7274 7.31367 15.9722C6.87931 16.1405 6.43294 16.25 6 16.25C3.37665 16.25 1.25 14.1234 1.25 11.5C1.25 8.87668 3.37665 6.75003 6 6.75003C6.74956 6.75003 7.53938 7.07848 8.23743 7.47149C8.49515 7.61659 8.75286 7.77778 9.00647 7.94858C9.00218 7.88295 9 7.81675 9 7.75003C9 6.98911 9.28329 6.29436 9.75016 5.76549C9.75005 5.76035 9.75 5.7552 9.75 5.75003C9.75 5.25771 9.50224 4.76243 9.06423 4.37309C8.62496 3.98263 8.04835 3.75003 7.5 3.75003C7.08579 3.75003 6.75 3.41424 6.75 3.00003ZM12 6.25003C11.1716 6.25003 10.5 6.9216 10.5 7.75003C10.5 8.57846 11.1716 9.25003 12 9.25003C12.8284 9.25003 13.5 8.57846 13.5 7.75003C13.5 6.9216 12.8284 6.25003 12 6.25003ZM6 8.25003C4.20507 8.25003 2.75 9.7051 2.75 11.5C2.75 13.295 4.20507 14.75 6 14.75C6.35501 14.75 6.86747 14.5785 7.50153 14.2215C8.11548 13.8758 8.75927 13.4051 9.35388 12.9193C9.94565 12.4357 10.473 11.9502 10.8533 11.5845L10.9407 11.5L10.8533 11.4156C10.473 11.0499 9.94565 10.5643 9.35388 10.0808C8.75927 9.59496 8.11548 9.12423 7.50153 8.77857C6.86747 8.42158 6.35501 8.25003 6 8.25003ZM8.75392 15.2174C8.76647 15.5642 8.8088 15.8933 8.8753 16.2049L8.89676 16.2139C9.11031 16.3027 9.41156 16.4215 9.76008 16.5399C10.4756 16.7832 11.3182 17 12 17C12.6818 17 13.5244 16.7832 14.2399 16.5399C14.5884 16.4215 14.8897 16.3027 15.1032 16.2139L15.1247 16.2049C15.1912 15.8933 15.2335 15.5642 15.2461 15.2174C15.0879 15.1162 14.9309 15.0105 14.7758 14.9018C14.6228 14.9597 14.4427 15.0241 14.2436 15.0886C13.6385 15.2845 12.8004 15.5 12 15.5C11.1996 15.5 10.3615 15.2845 9.75643 15.0886C9.55729 15.0241 9.37717 14.9597 9.2242 14.9018C9.06914 15.0105 8.91205 15.1162 8.75392 15.2174ZM10.6515 13.7902C11.0973 13.9105 11.5755 14 12 14C12.4245 14 12.9027 13.9105 13.3485 13.7902C12.8603 13.3753 12.4313 12.9776 12.1069 12.6656C12.0699 12.63 12.0343 12.5955 12 12.5622C11.9657 12.5955 11.9301 12.63 11.8931 12.6656C11.5687 12.9776 11.1397 13.3753 10.6515 13.7902ZM18 8.25003C19.7949 8.25003 21.25 9.7051 21.25 11.5C21.25 13.295 19.7949 14.75 18 14.75C17.645 14.75 17.1325 14.5785 16.4985 14.2215C15.8845 13.8758 15.2407 13.4051 14.6461 12.9193C14.0543 12.4357 13.527 11.9502 13.1467 11.5845L13.0593 11.5L13.1467 11.4156C13.527 11.0499 14.0543 10.5643 14.6461 10.0808C15.2407 9.59496 15.8845 9.12423 16.4985 8.77857C17.1325 8.42158 17.645 8.25003 18 8.25003ZM11.984 20.2186L12 20.2255L12.016 20.2186C12.1188 20.1739 12.2633 20.0989 12.4373 19.9897C12.7846 19.7718 13.2183 19.4372 13.6403 18.9871C13.8883 18.7225 14.1299 18.421 14.3473 18.082C13.6452 18.2989 12.788 18.5 12 18.5C11.212 18.5 10.3548 18.2989 9.65265 18.082C9.87007 18.421 10.1117 18.7225 10.3597 18.9871C10.7817 19.4372 11.2154 19.7718 11.5627 19.9897C11.7367 20.0989 11.8812 20.1739 11.984 20.2186Z" fill="#002B51"/>
</svg>
